src/main/webapp/scripts/pdfjs/v54530/web/images/secondaryToolbarButton-lastPage.svg

<svg fill="none" height="16" viewBox="0 0 16 16" width="16" xmlns="http://www.w3.org/2000/svg"><path d="m8 8.189 4.939-4.939 1.061 1.061-5.469 5.47c-.293.293-.768.293-1.061 0l-5.47-5.47 1.061-1.061zm6 5.311v-1.5h-12v1.5z" fill="#000"/></svg>

<svg width="16" height="16" viewBox="0 0 16 16" fill="none" xmlns="http://www.w3.org/2000/svg">
<path d="M8 8.189L12.939 3.25L14 4.311L8.531 9.781C8.238 10.074 7.763 10.074 7.47 9.781L2 4.311L3.061 3.25L8 8.189ZM14 13.5V12H2V13.5H14Z" fill="black"/>
</svg>
